demoApp/www/icon/search.svg

<svg xmlns="http://www.w3.org/2000/svg" viewBox="0 0 22 22" width="22" height="22"><font horiz-adv-x="2048"><font-face font-family="TeamsAssets-Light" units-per-em="2048" underline-position="-119" underline-thickness="119"/><glyph unicode="" horiz-adv-x="2048" d="M1318 1767c68-68 121-147 160-236 38-90 57-184 57-283s-19-192-57-281-91-168-160-237-148-122-237-160c-89-39-183-58-282-58s-192 19-281 58c-89 38-168 91-237 160S159 878 121 967c-39 89-58 182-58 281s19 193 58 282c38 89 91 168 160 237s148 122 237 160 182 57 281 57 193-19 283-57c89-39 168-92 236-160m6-954l640-640c13-13 19-28 19-45s-6-32-19-45-28-19-45-19-32 6-45 19l-640 640c-13 13-19 28-19 45s6 32 19 45 28 19 45 19 32-6 45-19m-953 863c-57-57-101-122-132-195-32-74-48-152-48-233s16-159 48-232c31-74 75-139 132-196s122-101 196-132c73-32 151-48 232-48s159 16 233 48c73 31 138 75 195 132s101 122 133 196c31 73 47 151 47 232s-16 159-47 233c-32 73-76 138-133 195s-122 101-195 133c-74 31-152 47-233 47s-159-16-232-47c-74-32-139-76-196-133z"/></font><text transform="translate(0 22)" font-size="22" font-family="TeamsAssets-Light" fill="#6264a7"></text></svg>

<?xml version="1.0" encoding="utf-8"?>
<!-- Generator: Adobe Illustrator 21.0.0, SVG Export Plug-In . SVG Version: 6.00 Build 0)  -->
<svg version="1.1" id="Layer_1" xmlns="http://www.w3.org/2000/svg" xmlns:xlink="http://www.w3.org/1999/xlink" x="0px" y="0px"
	 viewBox="0 0 22 22" style="enable-background:new 0 0 22 22;" xml:space="preserve">
<style type="text/css">
	.st0{fill:#6264A7;}
	.st1{font-family:'TeamsAssets-Light';}
	.st2{font-size:22px;}
</style>
<font horiz-adv-x="2048">
<!-- Copyright (c) 2017 by Microsoft. All rights reserved. -->
<!-- Copyright: Copyright 2018 Adobe System Incorporated. All rights reserved. -->
<font-face font-family="TeamsAssets-Light" units-per-em="2048" underline-position="-119" underline-thickness="119"/>
<missing-glyph horiz-adv-x="600"/>
<glyph unicode="&#xE446;" horiz-adv-x="2048" d="M1318,1767C1386,1699 1439,1620 1478,1531C1516,1441 1535,1347 1535,1248C1535,1149 1516,1056 1478,967C1440,878 1387,799 1318,730C1249,661 1170,608 1081,570C992,531 898,512 799,512C700,512 607,531 518,570C429,608 350,661 281,730C212,799 159,878 121,967C82,1056 63,1149 63,1248C63,1347 82,1441 121,1530C159,1619 212,1698 281,1767C350,1836 429,1889 518,1927C607,1965 700,1984 799,1984C898,1984 992,1965 1082,1927C1171,1888 1250,1835 1318,1767M1324,813l640,-640C1977,160 1983,145 1983,128C1983,111 1977,96 1964,83C1951,70 1936,64 1919,64C1902,64 1887,70 1874,83l-640,640C1221,736 1215,751 1215,768C1215,785 1221,800 1234,813C1247,826 1262,832 1279,832C1296,832 1311,826 1324,813M371,1676C314,1619 270,1554 239,1481C207,1407 191,1329 191,1248C191,1167 207,1089 239,1016C270,942 314,877 371,820C428,763 493,719 567,688C640,656 718,640 799,640C880,640 958,656 1032,688C1105,719 1170,763 1227,820C1284,877 1328,942 1360,1016C1391,1089 1407,1167 1407,1248C1407,1329 1391,1407 1360,1481C1328,1554 1284,1619 1227,1676C1170,1733 1105,1777 1032,1809C958,1840 880,1856 799,1856C718,1856 640,1840 567,1809C493,1777 428,1733 371,1676z"/>
</font>

	<desc>Created with Sketch.</desc>
<g id="Priority-Msg-_x2F_-Img-Annotation">
	<g id="_x31_-0-Chat" transform="translate(-59.000000, -30.000000)">
		<g id="Icon_x2F_Brand-Line" transform="translate(59.000000, 30.000000)">
			<text transform="matrix(1 0 0 1 0 22)" class="st0 st1 st2"></text>
		</g>
	</g>
</g>
</svg>
